X:1
T:The Star-Spangled Banner
T:The Star-Spangled Banner
T:(as performed by James Charles)
T:John Stafford Smith
T:Francis Scott Key
C:John Stafford Smith
Z:Francis Scott Key
%%score 1 2 3
L:1/8
Q:1/4=85
M:3/4
K:F
V:1 treble nm="Soprano" snm="S."
V:2 treble nm="Alto" snm="A."
V:3 treble-8 nm="Baritone" snm="B."
V:1
"^Swing" x4 (CA,) | F,2 A,2{/F} G2 | F4 (AG | F2 A,2 =B,2 | C3) z"^Straight" CC |{/G} (A3 G F2 | %6
w: O _|say can you|see, by the|dawn's ear- ly|light, What so|proud- ly we|
 E3) z"^Swing" (DE | F2 F2 C2 |[M:4/4]{/G,} A,G,/F,/ F,2) z2 (CA,) |[M:3/4] F,2 A,2{/F} G2 | %10
w: hailed at the|twi- light's last|gleam- * * ing, Whose broad|stripes and bright|
 F4 (AG | F2 A,2 =B,2 | C3) z"^Straight" CC |{/G} (A3 G F2 | E3) z"^Swing" (DE | F2 F2 C2 | %16
w: stars through the|per- i- lous|fight, O'er the|ram- parts we|watched, were so|gal- lant- ly|
[M:4/4]{/G,} A,G,/F,/ F,2) z2 (AA |[M:3/4] A2 B2{/B} c2 | c4)"^Straight"({/A} BA/G/ | G2 A2 B2 | %20
w: stream- * * ing? And the|rock- ets' red|glare, the bombs _|burst- ing in|
 B3) z({/B} c2 |{/G} A3 G F2 | E3) z"^Swing" (DE |[Q:1/4=80] F2[Q:1/4=75] A2[Q:1/4=70]{/c)} d2 | %24
w: air, Gave|proof through the|night that our|flag was still|
[Q:1/4=65]{/c} d4[Q:1/4=70] c2- | c4 B2-[Q:1/4=75] |[Q:1/4=80] B2 z2"^Straight"[Q:1/4=85]({/B} c2 | %27
w: there; _|_ _|* O|
 c2 c2 c2 | B2 B2 A2 | %29
w: say does that|star- span- gled|
[Q:1/4=80] B2[Q:1/4=70]{/c} d[Q:1/4=65]c[Q:1/4=60] B[Q:1/4=55]{/!fermata!c)}!fermata!d[Q:1/4=75] | %30
w: ban- ner _ yet _|
[Q:1/4=70]{/B} c6- | c2 z2[Q:1/4=80] (CC | %32
w: wave|_ O'er the|
[Q:1/4=75]{/E} F3 G[Q:1/4=75] !fermata!A!fermata!B[Q:1/4=70] | %33
w: land _ of the|
[Q:1/4=80]{/B} c6[Q:1/4=75][Q:1/4=70] |[M:4/4][Q:1/4=75]{/A)} B4[Q:1/4=80] z2 FG | %35
w: free|_ and the|
[M:3/4][Q:1/4=85]{/G} !breath!A4{/A} B2 | !breath!G6 |[Q:1/4=80]({/E} F4 _EF |{/G} _A4 FA | %39
w: home of|the|brave! _ _|_ _ _|
[Q:1/4=75]{/A} B4 _AB |{/c)} _d6 |[Q:1/4=80]{/_d} _e2{/d} c4 | %42
w: ||The _|
[Q:1/4=40]{/!fermata!B} !fermata!c6 |] %43
w: brave!|
V:2
 x4 (CA,) | F,2 A,2 E2 | (E2 D2) (EE | D2 A,2 =B,2 | C3) z CC |{/E} (F3 E/D/{/C} D2 | C3) z (DE | %7
w: O _|say can you|see, _ by the|dawn's ear- ly|light, What so|proud- ly _ we|hailed at the|
 F2 F2 C2 |[M:4/4]{/G,} A,G,/F,/ F,2) z2 (CA,) |[M:3/4] F,2 A,2 E2 | (E2 D2) (EE | D2 A,2 =B,2 | %12
w: twi- light's last|gleam- * * ing, Whose broad|stripes and bright|stars _ through the|per- i- lous|
 C3) z CC |{/E} (F3 E/D/{/C} D2 | C3) z (DE | F2 F2 C2 |[M:4/4]{/G,} A,G,/F,/ F,2) z2 (FF | %17
w: fight, O'er the|ram- parts _ we|watched, were so|gal- lant- ly|stream- * * ing? And the|
[M:3/4] F2 G2{/G} A2 | G2 ^F2)({/E} FF | D2 F2 G2 | G3) z({/G} A2 |{/E} F3 E/D/{/C} D2 | %22
w: rock- ets' red|glare, _ the bombs|burst- ing in|air, Gave|proof through _ the|
 C3) z (DE | F2 F2{/A)} B2 |{/A} B6 | G6- | G2 z2({/B} c2 | cB A2 AG | F2 F2 ^F2 | %29
w: night that our|flag was still|there;|_|* O|say _ does that _|star- span- gled|
 G2{/A} BA G{/!fermata!A)}!fermata!B |{/G} A4 G2- | G2 z2 (CC |{/B,} C3 D !fermata!F!fermata!G | %33
w: ban- ner _ yet _|wave _|_ O'er the|land _ of the|
{/G} A2 G2 ^F2 |[M:4/4] F4) z2 CD |[M:3/4]{/E} !breath!F4{/E} F2 | (F2 !breath!E4) |({/C} _D4 CD | %38
w: free _ _|_ and the|home of|the _|brave! _ _|
{/E} F4 _EF |{/E} F4 _EF |{/A)} B6 |{/A} B6 |{/!fermata!G} !fermata!A6 |] %43
w: _ _ _|||The|brave!|
V:3
 x4 (cA) | F2 A2 c2 | A4 (^cc | A2 A2 =B2 | c3) z cc |{/B} (c3 B/A/{/G} A2 | G3) z (de | f2 f2 c2 | %8
w: O _|say can you|see, by the|dawn's ear- ly|light, What so|proud- ly _ we|hailed at the|twi- light's last|
[M:4/4]{/G} AG/F/ F2) z2 (cA) |[M:3/4] F2 A2 c2 | A4 (^cc | A2 A2 =B2 | c3) z cc | %13
w: gleam- * * ing, Whose broad|stripes and bright|stars through the|per- i- lous|fight, O'er the|
{/B} (c3 B/A/{/G} A2 | G3) z (de | f2 f2 c2 |[M:4/4]{/G} AG/F/ F2) z2 (cc |[M:3/4] c2 d2{/e} f2 | %18
w: ram- parts _ we|watched, were so|gal- lant- ly|stream- * * ing? And the|rock- ets' red|
 _e2 d2)({/c} dd | B2 c2 d2 | _d3) z({/e} f2 |{/B} c3 B/A/{/G} A2 | G3) z (de | f2 c2{/e)} f2 | %24
w: glare, _ the bombs|burst- ing in|air, Gave|proof through _ the|night that our|flag was still|
{/e} f6- | f2 e4- | e2 z2({/b} c'2 | c'b ag fe | d2 d2 c2 | d2{/e} fe d{/!fermata!e)}!fermata!f | %30
w: there;|_ _|* O|say _ does _ that _|star- span- gled|ban- ner _ yet _|
{/e} f4 e2- | e2 z2 (cc |{/G} A3 B !fermata!c!fermata!d |{/e} f2 e2 _e2 |[M:4/4] d4) z2 AB | %35
w: wave _|_ O'er the|land _ of the|free _ _|_ and the|
[M:3/4]{/B} !breath!c4{/B} c2 | !breath!c6 |({/G} _A4 GA |{/c} _d4 cd |{/c} _d4 cd |{/e)} f6 | %41
w: home of|the|brave! _ _|_ _ _|||
{/e} f6 |{/!fermata!e} !fermata!f6 |] %43
w: The|brave!|

